X: 9233
T: Dan Cronin's
R: reel
M: 4/4
K: Gmajor
B2 Bd A2 GE|DGBG AGEG|Bd d2 Bdde|1 dBAG EGDG:|2 dBAG EGDE||
G2 G2 G2 BG|G2 BG AGEG|Bd d2 Bdde|1 dBAG EGDF:|2 dBAG EG D2||
d2 dc BGBd|edgd edge|d2 dc BGBd|1 egfa g3 e:|2 egfa g4||

